assets/collections/wii/logo_mono.svg

<svg version="1.0" viewBox="0 0 990 445" xmlns="http://www.w3.org/2000/svg"><path d="M167 430.01c-18.173-4.99-35.889-21.828-43.638-41.478-5.195-13.172-23.966-79.255-89.761-316l-9.866-35.5 44.518-.26c24.485-.144 44.831.081 45.214.5.383.418 17.05 64.935 37.038 143.37l36.342 142.61 17.274-66.11c41.021-156.99 47.988-182.31 53.165-193.18 6.976-14.653 19.169-25.124 33.647-28.895 7.628-1.987 25.207-2.009 32.765-.04 15.955 4.156 28.425 15.66 35.291 32.555 4.187 10.303 13.196 43.473 46.844 172.45 11.335 43.45 20.935 79.786 21.334 80.746.451 1.087 14.501-52.221 37.225-141.24l36.5-142.99 45.219-.006c35.741-.005 45.128.256 44.786 1.244-.238.687-9.867 35.225-21.397 76.75-55.103 198.44-74.286 265.08-79.688 276.84-9.176 19.969-24.597 33.845-42.914 38.616-7.652 1.993-24.288 2.011-31.874.035-10.565-2.752-16.608-6.389-25.672-15.452-7.08-7.078-9.339-10.166-13.206-18.04-6.322-12.874-12.416-33.87-51.226-176.5-9.13-33.55-16.85-61.675-17.158-62.5-.308-.825-9.728 31.98-20.933 72.9-24.628 89.937-37.601 136.4-41.633 149.1-8.714 27.454-24.558 45.03-45.447 50.416-7.533 1.942-25.774 1.977-32.748.062zm468.39-137.98v-136.5h85v273h-85v-136.5zm171 0v-136.5h85v273h-85v-136.5zm117 123v-13.5h-5c-4.667 0-5-.167-5-2.5v-2.5h26v2.5c0 2.333-.333 2.5-5 2.5h-5v27h-6v-13.5zm18-2.5v-16h8.914l3.043 9.86c1.674 5.424 3.043 10.465 3.043 11.2 0 3.123 1.954-1.178 4.911-10.81l3.147-10.25h8.942v32h-6l-.079-11.25c-.085-12.162-.036-12.191-4.444 2.557-2.631 8.8-2.636 8.808-5.775 8.5-3.079-.301-3.201-.515-6.171-10.808l-3.03-10.5-.569 21.5h-5.932v-16zm-275.5-304.1c-19.261-3.903-35.21-20.392-38.481-39.785-3.985-23.626 11.769-47.393 35.516-53.578 12.119-3.157 27.642-1.517 38.702 4.087 6.624 3.357 16.688 12.99 20.078 19.217 11.64 21.387 4.745 49.29-15.371 62.2-11.153 7.156-27.875 10.406-40.444 7.86zm171 0c-24.943-5.054-42.598-29.911-38.57-54.303 3.09-18.711 17.291-34.29 35.605-39.06 12.108-3.154 27.643-1.517 38.678 4.075 6.648 3.369 16.028 12.322 19.779 18.878 12.048 21.058 5.19 49.562-15.048 62.549-11.153 7.157-27.875 10.407-40.444 7.86z" fill="#fff"/></svg>

<?xml version="1.0" encoding="UTF-8" standalone="no"?><!-- Generator: Gravit.io --><svg xmlns="http://www.w3.org/2000/svg" xmlns:xlink="http://www.w3.org/1999/xlink" style="isolation:isolate" viewBox="0 0 990 445" width="990pt" height="445pt"><defs><clipPath id="_clipPath_IHgrSrutRutiGqmxZpE7E1quzPP35pl8"><rect width="990" height="445"/></clipPath></defs><g clip-path="url(#_clipPath_IHgrSrutRutiGqmxZpE7E1quzPP35pl8)"><path d=" M 166.997 430.009 C 148.824 425.02 131.109 408.181 123.359 388.531 C 118.165 375.36 99.393 309.276 33.599 72.531 L 23.733 37.031 L 68.25 36.771 C 92.735 36.628 113.082 36.853 113.465 37.271 C 113.848 37.689 130.515 102.206 150.503 180.642 L 186.845 323.252 L 204.119 257.142 C 245.14 100.149 252.107 74.832 257.284 63.958 C 264.26 49.304 276.453 38.834 290.931 35.063 C 298.559 33.076 316.138 33.055 323.696 35.023 C 339.651 39.179 352.121 50.683 358.986 67.578 C 363.173 77.882 372.183 111.051 405.83 240.031 C 417.165 283.481 426.765 319.817 427.164 320.777 C 427.616 321.864 441.665 268.556 464.389 179.533 L 500.889 36.544 L 546.108 36.538 C 581.849 36.533 591.236 36.793 590.894 37.781 C 590.656 38.469 581.027 73.006 569.497 114.531 C 514.394 312.974 495.211 379.616 489.809 391.372 C 480.633 411.341 465.212 425.217 446.895 429.988 C 439.243 431.981 422.607 432 415.02 430.024 C 404.455 427.272 398.412 423.634 389.349 414.571 C 382.269 407.493 380.01 404.406 376.143 396.531 C 369.82 383.658 363.726 362.661 324.916 220.031 C 315.787 186.481 308.066 158.356 307.758 157.531 C 307.45 156.706 298.03 189.511 286.825 230.431 C 262.197 320.369 249.224 366.83 245.192 379.531 C 236.478 406.985 220.634 424.561 199.745 429.947 C 192.212 431.89 173.971 431.924 166.997 430.009 Z  M 635.389 292.031 L 635.389 155.531 L 677.889 155.531 L 720.389 155.531 L 720.389 292.031 L 720.389 428.531 L 677.889 428.531 L 635.389 428.531 L 635.389 292.031 L 635.389 292.031 Z  M 806.389 292.031 L 806.389 155.531 L 848.889 155.531 L 891.389 155.531 L 891.389 292.031 L 891.389 428.531 L 848.889 428.531 L 806.389 428.531 L 806.389 292.031 L 806.389 292.031 Z  M 923.389 415.031 L 923.389 401.531 L 918.389 401.531 C 913.723 401.531 913.389 401.365 913.389 399.031 L 913.389 396.531 L 926.389 396.531 L 939.389 396.531 L 939.389 399.031 C 939.389 401.365 939.056 401.531 934.389 401.531 L 929.389 401.531 L 929.389 415.031 L 929.389 428.531 L 926.389 428.531 L 923.389 428.531 L 923.389 415.031 L 923.389 415.031 Z  M 941.389 412.531 L 941.389 396.531 L 945.846 396.531 L 950.303 396.531 L 953.346 406.392 C 955.02 411.816 956.389 416.856 956.389 417.592 C 956.389 420.714 958.343 416.414 961.3 406.781 L 964.447 396.531 L 968.918 396.531 L 973.389 396.531 L 973.389 412.531 L 973.389 428.531 L 970.389 428.531 L 967.389 428.531 L 967.31 417.281 C 967.225 405.119 967.274 405.09 962.866 419.839 C 960.235 428.639 960.231 428.646 957.092 428.339 C 954.012 428.038 953.89 427.823 950.92 417.531 L 947.889 407.031 L 947.605 417.781 L 947.322 428.531 L 944.355 428.531 L 941.389 428.531 L 941.389 412.531 L 941.389 412.531 Z  M 665.889 108.428 C 646.628 104.525 630.679 88.036 627.408 68.642 C 623.423 45.016 639.177 21.25 662.924 15.064 C 675.043 11.908 690.566 13.547 701.626 19.152 C 708.25 22.508 718.315 32.141 721.704 38.369 C 733.344 59.756 726.449 87.659 706.333 100.567 C 695.18 107.724 678.458 110.974 665.889 108.428 Z  M 836.889 108.428 C 811.946 103.374 794.291 78.517 798.319 54.124 C 801.409 35.414 815.611 19.834 833.924 15.064 C 846.032 11.911 861.567 13.547 872.602 19.139 C 879.25 22.508 888.63 31.461 892.381 38.018 C 904.429 59.076 897.572 87.58 877.333 100.567 C 866.18 107.724 849.458 110.974 836.889 108.428 Z " fill="rgb(255,255,255)"/></g></svg>
